assets/images/icons/src/codepen.svg

<?xml version="1.0" encoding="utf-8"?>
<!-- Generated by IcoMoon.io -->
<!DOCTYPE svg PUBLIC "-//W3C//DTD SVG 1.1//EN" "http://www.w3.org/Graphics/SVG/1.1/DTD/svg11.dtd">
<svg version="1.1" xmlns="http://www.w3.org/2000/svg" xmlns:xlink="http://www.w3.org/1999/xlink" width="14" height="14" viewBox="0 0 14 14">
<path fill="#444444" d="M1.688 9.133l4.711 3.141v-2.805l-2.609-1.742zM1.203 8.008l1.508-1.008-1.508-1.008v2.016zM7.602 12.273l4.711-3.141-2.102-1.406-2.609 1.742v2.805zM7 8.422l2.125-1.422-2.125-1.422-2.125 1.422zM3.789 6.273l2.609-1.742v-2.805l-4.711 3.141zM11.289 7l1.508 1.008v-2.016zM10.211 6.273l2.102-1.406-4.711-3.141v2.805zM14 4.867v4.266q0 0.32-0.266 0.5l-6.398 4.266q-0.164 0.102-0.336 0.102t-0.336-0.102l-6.398-4.266q-0.266-0.18-0.266-0.5v-4.266q0-0.32 0.266-0.5l6.398-4.266q0.164-0.102 0.336-0.102t0.336 0.102l6.398 4.266q0.266 0.18 0.266 0.5z"></path>
</svg>

<svg xmlns="http://www.w3.org/2000/svg" width="14" height="14" viewBox="0 0 14 14"><path fill="#444" d="M1.688 9.133l4.711 3.141V9.469L3.79 7.727zm-.485-1.125L2.711 7 1.203 5.992v2.016zm6.399 4.265l4.711-3.141-2.102-1.406-2.609 1.742v2.805zM7 8.422L9.125 7 7 5.578 4.875 7zM3.789 6.273l2.609-1.742V1.726L1.687 4.867zm7.5.727l1.508 1.008V5.992zm-1.078-.727l2.102-1.406-4.711-3.141v2.805zM14 4.867v4.266q0 .32-.266.5l-6.398 4.266q-.164.102-.336.102t-.336-.102L.266 9.633Q0 9.453 0 9.133V4.867q0-.32.266-.5L6.664.101Q6.828-.001 7-.001t.336.102l6.398 4.266q.266.18.266.5z"/></svg>
